dist/svgs/devui-icons/op/rollback.svg

<?xml version="1.0" encoding="UTF-8"?>
<svg width="16px" height="16px" viewBox="0 0 16 16" version="1.1" xmlns="http://www.w3.org/2000/svg" xmlns:xlink="http://www.w3.org/1999/xlink">
    <title>操作/Rollback</title>
    <desc>Created with Sketch.</desc>
    <g id="操作/Rollback" stroke="none" stroke-width="1" fill="none" fill-rule="evenodd">
        <path d="M3.05025253,3.05025253 C5.78392257,0.31658249 10.2160774,0.31658249 12.9497475,3.05025253 C15.6834175,5.78392257 15.6834175,10.2160774 12.9497475,12.9497475 C10.2160774,15.6834175 5.78392257,15.6834175 3.05025253,12.9497475 C1.83421786,11.7337128 1.15911911,10.1815836 1.02495628,8.5923738 L3.00949017,8.30886896 C3.08175665,9.48366423 3.56674863,10.6378164 4.46446609,11.5355339 C6.41708755,13.4881554 9.58291245,13.4881554 11.5355339,11.5355339 C13.4881554,9.58291245 13.4881554,6.41708755 11.5355339,4.46446609 C9.58291245,2.51184464 6.41708755,2.51184464 4.46446609,4.46446609 L5.87867966,5.87867966 L0.928932188,6.58578644 L1.63603897,1.63603897 L3.05025253,3.05025253 L3.05025253,3.05025253 Z M10.7071068,9.29289322 L9.29289322,10.7071068 L7,8.41421356 L7,5 L9,5 L9,7.58578644 L10.7071068,9.29289322 Z" id="形状" fill="#293040" fill-rule="nonzero"></path>
    </g>
</svg>

<svg xmlns="http://www.w3.org/2000/svg" viewBox="0 0 16 16"><path d="M3.05 3.05a7 7 0 11-2.025 5.542l1.984-.283a5 5 0 101.455-3.844L5.88 5.878l-4.95.707.707-4.95L3.05 3.05zm7.657 6.243l-1.414 1.414L7 8.414V5h2v2.586l1.707 1.707z"/></svg>
